X:60
T:Edna's Vase
C:Ed Yother
C:http://edyother.com
M:3/4
L:1/4
R:Waltz
K:D
|:  D F A | d d/c/ d/e/ | fe(3(d/e/d/) |  B>d c/2B/2 |
 AFD | E E/G/ F/2E/2 |[1  DFA | BA (3(F/G/F/) :|[2  D D B, |  DFA |]
|:  B B/A/ B/2c/2 | dAF | B A B | d c (3(B/c/B/) |
[1 A A/F/ A/2B/2 | AFD | E E/F/ G/2A/2 | BAF :|
[2 A A/F/ A/2B/2 | AF (3E/E/E/ |  EDC |  D>G F/2E/2 |]

